X:7945
T:Sinner man
C:anon.
O:USA
R:Negro spiritual
F:http://abc.musicaviva.com/tunes/usa/anon-sinner-man.abc
M:C
L:1/8
K:Em
"Em"B2GFE4|"Em"BBBA B2d2|
w:Oh sinn-er man, where you gonn-a run to,
"D"A2FED4|"D"AAAGA2d2|
w:Oh sinn-er man, where you gonn-a run to,
"Em"B2GFE4|"Em"BBBA B2d2|
w:Oh sinn-er man, where you gonn-a run to
"Em"B4"D"A2F2|"Em"E8|]
w:all on that day?
W:
W:Oh sinn-er man, where you gonn-a run to
W:all on that day?
W:
W:
W:  From Musica Viva - http://www.musicaviva.com
W:  the Internet center for free sheet music downloads.

